X: 29681
T: Not For Joe
R: barndance
M: 4/4
K: Gmajor
|:D2 GG D2 G2|F2 E2 F2 E2|D2 GG D2 G2|F2 G2 A4|
D2 GG D2 G2|F2 E2 F2 E2|D2 D2 B3 A|G2 F2 G4:|
|:B3 A G2 B2|c3 B A2 c2|B3 A G2 B2|AG FE D4|
B3 A G2 B2|c3 B A2 c2|B2 G2 A2 F2|G4 G4:|

